status/64/image-loading.svg

<?xml version="1.0" encoding="UTF-8" standalone="no"?>
<!-- Created with Inkscape (http://www.inkscape.org/) -->

<svg
   xmlns:dc="http://purl.org/dc/elements/1.1/"
   xmlns:cc="http://creativecommons.org/ns#"
   xmlns:rdf="http://www.w3.org/1999/02/22-rdf-syntax-ns#"
   xmlns:svg="http://www.w3.org/2000/svg"
   xmlns="http://www.w3.org/2000/svg"
   xmlns:sodipodi="http://sodipodi.sourceforge.net/DTD/sodipodi-0.dtd"
   xmlns:inkscape="http://www.inkscape.org/namespaces/inkscape"
   version="1.0"
   width="64.000031"
   height="64.000031"
   id="svg6396"
   sodipodi:version="0.32"
   inkscape:version="0.47 r22583"
   sodipodi:docname="image-loading.svg"
   inkscape:output_extension="org.inkscape.output.svg.inkscape">
  <metadata
     id="metadata8">
    <rdf:RDF>
      <cc:Work
         rdf:about="">
        <dc:format>image/svg+xml</dc:format>
        <dc:type
           rdf:resource="http://purl.org/dc/dcmitype/StillImage" />
        <dc:title></dc:title>
      </cc:Work>
    </rdf:RDF>
  </metadata>
  <sodipodi:namedview
     inkscape:window-height="691"
     inkscape:window-width="1278"
     inkscape:pageshadow="2"
     inkscape:pageopacity="0"
     guidetolerance="10.0"
     gridtolerance="10.0"
     objecttolerance="10.0"
     borderopacity="1.0"
     bordercolor="#666666"
     pagecolor="#ffffff"
     id="base"
     showgrid="false"
     inkscape:zoom="1"
     inkscape:cx="32.000015"
     inkscape:cy="32.000015"
     inkscape:window-x="0"
     inkscape:window-y="24"
     inkscape:current-layer="svg6396"
     inkscape:window-maximized="0">
    <inkscape:grid
       type="xygrid"
       id="grid2817"
       empspacing="5"
       visible="true"
       enabled="true"
       snapvisiblegridlinesonly="true" />
  </sodipodi:namedview>
  <defs
     id="defs6398" />
  <path
     style="opacity:0.3;fill:#ffffff;fill-opacity:1;fill-rule:evenodd;stroke:none"
     d="m 32.879669,24.224776 -1.340427,0 -1.340424,9.382983 6.702129,5.361705 10e-7,-1.340427 -4.021278,-5.361704 -10e-7,-8.042557 z"
     id="path2839-7" />
  <path
     style="opacity:0.3;fill:#ffffff;fill-opacity:1;fill-rule:evenodd;stroke:none"
     d="m 31.9375,19.000031 c -7.728,0 -14,6.272 -14,14 0,7.728 6.272,14 14,14 7.728,0 14,-6.272 14,-14 0,-7.728 -6.272,-14 -14,-14 z m 0,2 c 6.624,0 12,5.376 12,12 0,6.624 -5.376,12 -12,12 -6.624,0 -12,-5.376 -12,-12 0,-6.624 5.376,-12 12,-12 z"
     id="path2837-3" />
  <path
     style="opacity:0.3;fill:#ffffff;fill-opacity:1;fill-rule:evenodd;stroke:none"
     d="m 17,4.00003 0,2 11,0 0,-2 -11,0 z m 19,0 0,2 11,0 0,-2 -11,0 z m -33,14.000001 0,11 2,0 0,-11 -2,0 z m 56,0 0,11 2,0 0,-11 -2,0 z m -56,19 0,11 2,0 0,-11 -2,0 z m 56,0 0,11 2,0 0,-11 -2,0 z m -42,23 0,2 11,0 0,-2 -11,0 z m 19,0 0,2 11,0 0,-2 -11,0 z"
     id="path3318-7" />
  <path
     style="opacity:0.3;fill:none;stroke:#ffffff;stroke-width:1.99999988;stroke-linecap:butt;stroke-linejoin:miter;stroke-miterlimit:4;stroke-opacity:1;stroke-dasharray:none"
     id="path2387"
     d="M 54.666666,61.000031 C 60,61.000031 60,61.000031 60,55.666697 M 60,10.333365 C 60,5.0000305 60,5.0000305 54.666666,5.0000305 M 4,55.666697 c 0,5.333334 0,5.333334 5.3333333,5.333334 m 0,-56.0000005 C 3.9999997,5.0000305 4,5.0000305 4,10.333365" />
  <path
     style="opacity:0.5;fill:#000000;fill-opacity:1;fill-rule:evenodd;stroke:none"
     d="m 32.879669,23.287245 -1.340427,0 -1.340424,9.382983 6.702129,5.361705 10e-7,-1.340427 -4.021278,-5.361704 -10e-7,-8.042557 z"
     id="path2839" />
  <path
     style="opacity:0.5;fill:#000000;fill-opacity:1;fill-rule:evenodd;stroke:none"
     d="M 31.9375 18.0625 C 24.2095 18.0625 17.9375 24.3345 17.9375 32.0625 C 17.9375 39.7905 24.2095 46.0625 31.9375 46.0625 C 39.6655 46.0625 45.9375 39.7905 45.9375 32.0625 C 45.9375 24.3345 39.6655 18.0625 31.9375 18.0625 z M 31.9375 20.0625 C 38.5615 20.0625 43.9375 25.4385 43.9375 32.0625 C 43.9375 38.6865 38.5615 44.0625 31.9375 44.0625 C 25.3135 44.0625 19.9375 38.6865 19.9375 32.0625 C 19.9375 25.4385 25.3135 20.0625 31.9375 20.0625 z "
     id="path2837" />
  <path
     style="opacity:0.5;fill:#000000;fill-opacity:1;fill-rule:evenodd;stroke:none"
     d="M 17 3 L 17 5 L 28 5 L 28 3 L 17 3 z M 36 3 L 36 5 L 47 5 L 47 3 L 36 3 z M 3 17 L 3 28 L 5 28 L 5 17 L 3 17 z M 59 17 L 59 28 L 61 28 L 61 17 L 59 17 z M 3 36 L 3 47 L 5 47 L 5 36 L 3 36 z M 59 36 L 59 47 L 61 47 L 61 36 L 59 36 z M 17 59 L 17 61 L 28 61 L 28 59 L 17 59 z M 36 59 L 36 61 L 47 61 L 47 59 L 36 59 z "
     id="path3318" />
  <path
     style="opacity:0.5;fill:none;stroke:#000000;stroke-width:2;stroke-linecap:butt;stroke-linejoin:miter;stroke-miterlimit:4;stroke-opacity:1;stroke-dasharray:none"
     id="path6300"
     d="m 54.666682,60.000015 c 5.333333,0 5.333333,0 5.333333,-5.333333 m 0,-45.3333335 c 0,-5.3333334 0,-5.3333334 -5.333333,-5.3333334 M 4.0000155,54.666682 c 0,5.333333 0,5.333333 5.3333334,5.333333 m 0,-55.9999999 c -5.3333337,0 -5.3333334,0 -5.3333334,5.3333334" />
</svg>

<?xml version="1.0" encoding="UTF-8" standalone="no"?>
<!-- Created with Inkscape (http://www.inkscape.org/) -->

<svg
   xmlns:dc="http://purl.org/dc/elements/1.1/"
   xmlns:cc="http://creativecommons.org/ns#"
   xmlns:rdf="http://www.w3.org/1999/02/22-rdf-syntax-ns#"
   xmlns:svg="http://www.w3.org/2000/svg"
   xmlns="http://www.w3.org/2000/svg"
   xmlns:inkscape="http://www.inkscape.org/namespaces/inkscape"
   version="1.0"
   width="64.000031"
   height="64.000031"
   id="svg6396">
  <metadata
     id="metadata8">
    <rdf:RDF>
      <cc:Work
         rdf:about="">
        <dc:format>image/svg+xml</dc:format>
        <dc:type
           rdf:resource="http://purl.org/dc/dcmitype/StillImage" />
        <dc:title />
      </cc:Work>
    </rdf:RDF>
  </metadata>
  <defs
     id="defs6398" />
  <path
     d="m 32.879669,24.224776 -1.340427,0 -1.340424,9.382983 6.702129,5.361705 10e-7,-1.340427 -4.021278,-5.361704 -10e-7,-8.042557 z"
     inkscape:connector-curvature="0"
     id="path2839-7"
     style="opacity:0.3;fill:#ffffff;fill-opacity:1;fill-rule:evenodd;stroke:none" />
  <path
     d="m 31.9375,19.000031 c -7.728,0 -14,6.272 -14,14 0,7.728 6.272,14 14,14 7.728,0 14,-6.272 14,-14 0,-7.728 -6.272,-14 -14,-14 z m 0,2 c 6.624,0 12,5.376 12,12 0,6.624 -5.376,12 -12,12 -6.624,0 -12,-5.376 -12,-12 0,-6.624 5.376,-12 12,-12 z"
     inkscape:connector-curvature="0"
     id="path2837-3"
     style="opacity:0.3;fill:#ffffff;fill-opacity:1;fill-rule:evenodd;stroke:none" />
  <path
     d="m 17,4.00003 0,2 11,0 0,-2 -11,0 z m 19,0 0,2 11,0 0,-2 -11,0 z m -33,14.000001 0,11 2,0 0,-11 -2,0 z m 56,0 0,11 2,0 0,-11 -2,0 z m -56,19 0,11 2,0 0,-11 -2,0 z m 56,0 0,11 2,0 0,-11 -2,0 z m -42,23 0,2 11,0 0,-2 -11,0 z m 19,0 0,2 11,0 0,-2 -11,0 z"
     inkscape:connector-curvature="0"
     id="path3318-7"
     style="opacity:0.3;fill:#ffffff;fill-opacity:1;fill-rule:evenodd;stroke:none" />
  <path
     d="M 54.666666,61.000031 C 60,61.000031 60,61.000031 60,55.666697 M 60,10.333365 C 60,5.0000305 60,5.0000305 54.666666,5.0000305 M 4,55.666697 c 0,5.333334 0,5.333334 5.3333333,5.333334 m 0,-56.0000005 C 3.9999997,5.0000305 4,5.0000305 4,10.333365"
     inkscape:connector-curvature="0"
     id="path2387"
     style="opacity:0.3;fill:none;stroke:#ffffff;stroke-width:1.99999988;stroke-linecap:butt;stroke-linejoin:miter;stroke-miterlimit:4;stroke-opacity:1;stroke-dasharray:none" />
  <path
     d="m 32.879669,23.287245 -1.340427,0 -1.340424,9.382983 6.702129,5.361705 10e-7,-1.340427 -4.021278,-5.361704 -10e-7,-8.042557 z"
     inkscape:connector-curvature="0"
     id="path2839"
     style="opacity:0.5;fill:#000000;fill-opacity:1;fill-rule:evenodd;stroke:none" />
  <path
     d="m 31.9375,18.0625 c -7.728,0 -14,6.272 -14,14 0,7.728 6.272,14 14,14 7.728,0 14,-6.272 14,-14 0,-7.728 -6.272,-14 -14,-14 z m 0,2 c 6.624,0 12,5.376 12,12 0,6.624 -5.376,12 -12,12 -6.624,0 -12,-5.376 -12,-12 0,-6.624 5.376,-12 12,-12 z"
     inkscape:connector-curvature="0"
     id="path2837"
     style="opacity:0.5;fill:#000000;fill-opacity:1;fill-rule:evenodd;stroke:none" />
  <path
     d="M 17,3 17,5 28,5 28,3 17,3 z M 36,3 36,5 47,5 47,3 36,3 z M 3,17 3,28 5,28 5,17 3,17 z m 56,0 0,11 2,0 0,-11 -2,0 z M 3,36 3,47 5,47 5,36 3,36 z m 56,0 0,11 2,0 0,-11 -2,0 z m -42,23 0,2 11,0 0,-2 -11,0 z m 19,0 0,2 11,0 0,-2 -11,0 z"
     inkscape:connector-curvature="0"
     id="path3318"
     style="opacity:0.5;fill:#000000;fill-opacity:1;fill-rule:evenodd;stroke:none" />
  <path
     d="m 54.666682,60.000015 c 5.333333,0 5.333333,0 5.333333,-5.333333 m 0,-45.3333335 c 0,-5.3333334 0,-5.3333334 -5.333333,-5.3333334 M 4.0000155,54.666682 c 0,5.333333 0,5.333333 5.3333334,5.333333 m 0,-55.9999999 c -5.3333337,0 -5.3333334,0 -5.3333334,5.3333334"
     inkscape:connector-curvature="0"
     id="path6300"
     style="opacity:0.5;fill:none;stroke:#000000;stroke-width:2;stroke-linecap:butt;stroke-linejoin:miter;stroke-miterlimit:4;stroke-opacity:1;stroke-dasharray:none" />
</svg>
